X:1
T:Das schöne Wörtlein
T:André Vierendeels
T:Melody by Georg Vogler (1625) (Soprano voice)
T:Source : Catechismus---Würzburg---J.Volmari---1652. Editor : André Vierendeels (04/09/17).
T:Notes : Original clef : C1, other voices supplied editorially Original note values have been halved Text Middle German
T:Das schöne Wörtlein
T:©
T:©
C:André Vierendeels
Z:©
%%score [ 1 2 3 ]
L:1/8
Q:1/4=120
M:2/2
K:F
V:1 treble nm="Soprano" snm="S"
V:2 treble-8 nm="Tenor" snm="T"
V:3 bass nm="Bass" snm="B"
V:1
"^1)" F4 G2 A2 | G2 F2 E4 | D4 C4 | z4 F4 | G2 A2 B2 A2 | F2 G2 A4 | z4 A4 | A2 c2 c4 | B4 A2 G2 | %9
w: Das schö- ne|Wört- lein Sa-|cra- ment,|wel-|ches das vierd' Haupt-|stück für- wend?|be-|deut hie nicht|End o- der|
w: Son- dern ein|Zei- chen ei-|gent- lich|das|Gött- lich sey, doch|sicht- bar- lich,|un-|sicht- bar- li-|cher Hei- lig-|
 F4 z4 | c4 c2 d2 | c2 B2 A2 B2 | G4 z4 | A4 c2 B2 | A4 F2 G2- | G2 A2 F4 | z4 A4 | A2 B2 A2 G2 | %18
w: Pflicht,|wel- chen in|Krieg das Volck ver-|spricht,|das er wolt|stehn für gmei-|* nen Nutz,|dem|Feind a- ber bie-|
w: keit,|in- wen- di-|ger Ge- rech- tig-|keit,|und ü- ber|die Mensch- lich|_ Na- thur,|zu|Gott er- heb die|
 F2 E2 !fermata!F4 |] %19
w: ten den Trutz.|
w: Cre- a- thur.|
V:2
"^2)""^1)" A4 G2 F2 | E2 A2 G4 | B4 G4 | z4 d4 | B2 F2 G2 A2 | F2 D2 C4 | z4 F4 | c2 G2 E4 | %8
w: Das schö- ne|Wört- lein Sa-|cra- ment,|wel-|ches das vierd' Haupt-|stück für- wend?|be-|deut hie nicht|
w: Ein Zei- chen|wel- ches man-|nig- falt|mit|Tu- gend die Seel|macht ge- stalt,|und|uns er- in-|
 F4 c2 B2 | A4 z4 | G4 A2 B2 | G2 D2 F2 F2 | E4 z4 | c4 e2 d2 | f4 B2 G2 | B2 d2 A4 | z4 c4 | %17
w: End o- der|Pflicht,|wel- chen in|Krieg das Volck ver-|spricht,|das er wolt|stehn für ge-|mei- nen Nutz,|dem|
w: nert was für|Krafft|Got- tes Gnad|in der See- len|schafft:|al- so ab-|wa- * schen|in der Tauff,|zeicht|
 A2 G2 F2 D2 | F2 G2 !fermata!A4 |] %19
w: Feind a- ber bie-|ten den Trutz.|
w: wie im Geist die|Sünd er- sauff.|
V:3
"^3)""^1)""^4)" F,4 C,2 D,2 | C,2 D,2 C,4 | G,4 C,4 | z4 B,,4 | G,,2 D,2 E,2 F,2 | D,2 G,2 F,4 | %6
w: Das schö- ne|Wört- lein Sa-|cra- ment,|wel-|ches das vierd' Haupt-|stück fü- wend?|
w: Krafft- sam seyn|sie, weil Gott|ge- wolt|dasz|je- des deut und|wür- den solt,|
 z4 D,4 | F,2 C,2 A,,4 | B,,4 F,2 G,2 | D,4 z4 | C,4 F,2 B,,2 | C,2 G,2 F,2 B,,2 | C,4 z4 | %13
w: be-|deur hie nicht|End o- der|Pflicht,|wel- chen in|Krieg das Volck ver-|spricht,|
w: hei-|lig- keit, und|Ge- rech- tig-|keit:|Christi Todt bad|die Se- * lig-|keit,|
 F,4 C,2 G,2 | F,4 B,,2 C,2 | G,2 F,2 D,4 | z4 F,4 | D,2 G,2 D,2 G,,2 | D,2 C,2 !fermata!F,4 |] %19
w: das er wolt|sehn für ge-|mei- nen Nutz,|dem|Feind a- ber bie-|ten den Trutz.|
w: be- deut gleich-|wol bisz auff|ein _ End,|ein|je- des hei- lig|Sa- cra- ment.|

